X: 14345
T: Gallowglass Rant, The
R: jig
M: 6/8
K: Gmajor
|:D|GBB B2A|Bcd BAG|EFEc2B|ABG FED|
GBB B2A|Bcd BAG|EFG ABc|1 BAG G2:|2 BAG G3||
|:dBG Ggf|ece gfe|dBd gdB|ABG AFD|
dBG Ggf|ece gfe|dcB Adc|1 BAGG2 B:|2 BAG G3||

